map_marker_monochrome/openmoji_horizontal_full_octagon.svg

<svg xmlns="http://www.w3.org/2000/svg" width="24" height="24" viewBox="0 0 24 24"> <g transform="scale(0.44444196709199824)">
  
  <g
     id="line-supplement"
     transform="translate(-9,-9)">
    <path
       fill="#000"
       d="M 24.6621,10.5685 C 25.0261,10.2045 25.5197,10 26.0344,10 h 19.9314 c 0.5147,0 1.0084,0.2045 1.3724,0.5685 l 14.0936,14.0936 c 0.364,0.364 0.5685,0.8576 0.5685,1.3723 v 19.9314 c 0,0.5147 -0.2045,1.0084 -0.5685,1.3724 L 47.3382,61.4318 c -0.364,0.364 -0.8577,0.5685 -1.3724,0.5685 H 26.0344 c -0.5147,0 -1.0083,-0.2045 -1.3723,-0.5685 L 10.5685,47.3382 C 10.2045,46.9742 10,46.4805 10,45.9658 V 26.0344 c 0,-0.5147 0.2045,-1.0083 0.5685,-1.3723 z"
       id="path2" />
  </g>
  <g
     id="line"
     transform="translate(-9,-9)">
    <path
       fill="none"
       stroke="#000"
       stroke-width="2"
       d="M 24.6621,10.5685 C 25.0261,10.2045 25.5197,10 26.0344,10 h 19.9314 c 0.5147,0 1.0084,0.2045 1.3724,0.5685 l 14.0936,14.0936 c 0.364,0.364 0.5685,0.8576 0.5685,1.3723 v 19.9314 c 0,0.5147 -0.2045,1.0084 -0.5685,1.3724 L 47.3382,61.4318 c -0.364,0.364 -0.8577,0.5685 -1.3724,0.5685 H 26.0344 c -0.5147,0 -1.0083,-0.2045 -1.3723,-0.5685 L 10.5685,47.3382 C 10.2045,46.9742 10,46.4805 10,45.9658 V 26.0344 c 0,-0.5147 0.2045,-1.0083 0.5685,-1.3723 z"
       id="path5" />
  </g>
</g></svg>

<svg xmlns="http://www.w3.org/2000/svg" width="24" height="24" viewBox="0 0 24 24"> <g transform="scale(0.333333333)">  <g id="line-supplement">
    <path fill="#000" d="M24.6621 10.5685C25.0261 10.2045 25.5197 10 26.0344 10H45.9658C46.4805 10 46.9742 10.2045 47.3382 10.5685L61.4318 24.6621C61.7958 25.0261 62.0003 25.5197 62.0003 26.0344V45.9658C62.0003 46.4805 61.7958 46.9742 61.4318 47.3382L47.3382 61.4318C46.9742 61.7958 46.4805 62.0003 45.9658 62.0003H26.0344C25.5197 62.0003 25.0261 61.7958 24.6621 61.4318L10.5685 47.3382C10.2045 46.9742 10 46.4805 10 45.9658V26.0344C10 25.5197 10.2045 25.0261 10.5685 24.6621L24.6621 10.5685Z"/>
  </g>
  <g id="line">
    <path fill="none" stroke="#000" stroke-width="2" d="M24.6621 10.5685C25.0261 10.2045 25.5197 10 26.0344 10H45.9658C46.4805 10 46.9742 10.2045 47.3382 10.5685L61.4318 24.6621C61.7958 25.0261 62.0003 25.5197 62.0003 26.0344V45.9658C62.0003 46.4805 61.7958 46.9742 61.4318 47.3382L47.3382 61.4318C46.9742 61.7958 46.4805 62.0003 45.9658 62.0003H26.0344C25.5197 62.0003 25.0261 61.7958 24.6621 61.4318L10.5685 47.3382C10.2045 46.9742 10 46.4805 10 45.9658V26.0344C10 25.5197 10.2045 25.0261 10.5685 24.6621L24.6621 10.5685Z"/>
  </g></g></svg>
